images_breeze_svg/cmd/32/customshowdialog.svg

<svg viewBox="0 0 32 32" xmlns="http://www.w3.org/2000/svg"><path d="m3 4v18h26v-18zm1 1h24v16h-24zm12 1c-1.662 0-3 1.338-3 3s1.338 3 3 3 3-1.338 3-3-1.338-3-3-3zm0 8c-2.77 0-5 .89198-5 2v2 1h1.201172 7.597656 1.201172v-1-2c0-1.10802-2.23-2-5-2zm-3 9v4h-2v1h10v-1h-2v-4h-1v4h-4v-4z" fill="#4d4d4d"/></svg>

<?xml version="1.0" encoding="UTF-8" standalone="no"?>
<svg
   xmlns:dc="http://purl.org/dc/elements/1.1/"
   xmlns:cc="http://creativecommons.org/ns#"
   xmlns:rdf="http://www.w3.org/1999/02/22-rdf-syntax-ns#"
   xmlns:svg="http://www.w3.org/2000/svg"
   xmlns="http://www.w3.org/2000/svg"
   xmlns:sodipodi="http://sodipodi.sourceforge.net/DTD/sodipodi-0.dtd"
   xmlns:inkscape="http://www.inkscape.org/namespaces/inkscape"
   viewBox="0 0 32 32"
   version="1.1"
   id="svg4"
   sodipodi:docname="customshowdialog.svg"
   inkscape:version="0.92.4 (unknown)"
   inkscape:export-filename="/home/rizmut/Dokumen/Rizmut/Github/tmp/breeze/cmd/32/customshowdialog.png"
   inkscape:export-xdpi="96"
   inkscape:export-ydpi="96">
  <metadata
     id="metadata10">
    <rdf:RDF>
      <cc:Work
         rdf:about="">
        <dc:format>image/svg+xml</dc:format>
        <dc:type
           rdf:resource="http://purl.org/dc/dcmitype/StillImage" />
        <dc:title></dc:title>
      </cc:Work>
    </rdf:RDF>
  </metadata>
  <defs
     id="defs8" />
  <sodipodi:namedview
     pagecolor="#ffffff"
     bordercolor="#666666"
     borderopacity="1"
     objecttolerance="10"
     gridtolerance="10"
     guidetolerance="10"
     inkscape:pageopacity="0"
     inkscape:pageshadow="2"
     inkscape:window-width="1360"
     inkscape:window-height="714"
     id="namedview6"
     showgrid="true"
     inkscape:object-paths="false"
     inkscape:snap-smooth-nodes="true"
     inkscape:zoom="10.429825"
     inkscape:cx="-14.018614"
     inkscape:cy="22.316786"
     inkscape:window-x="0"
     inkscape:window-y="28"
     inkscape:window-maximized="1"
     inkscape:current-layer="svg4">
    <inkscape:grid
       type="xygrid"
       id="grid817" />
  </sodipodi:namedview>
  <path
     style="fill:#4d4d4d"
     d="M 3 4 L 3 22 L 29 22 L 29 4 L 3 4 z M 4 5 L 28 5 L 28 21 L 4 21 L 4 5 z M 16 6 C 14.338 6 13 7.338 13 9 C 13 10.662 14.338 12 16 12 C 17.662 12 19 10.662 19 9 C 19 7.338 17.662 6 16 6 z M 16 14 C 13.23 14 11 14.89198 11 16 L 11 18 L 11 19 L 12.201172 19 L 19.798828 19 L 21 19 L 21 18 L 21 16 C 21 14.89198 18.77 14 16 14 z M 13 23 L 13 27 L 11 27 L 11 28 L 21 28 L 21 27 L 19 27 L 19 23 L 18 23 L 18 27 L 14 27 L 14 23 L 13 23 z "
     id="path2" />
</svg>
